symbols/web/filter_none/materialsymbolsrounded/filter_none_fill1_40px.svg

<svg xmlns="http://www.w3.org/2000/svg" height="40" width="40"><path d="M11.667 31.125q-1.125 0-1.959-.833-.833-.834-.833-1.959V6.125q0-1.125.833-1.958.834-.834 1.959-.834h22.208q1.125 0 1.958.834.834.833.834 1.958v22.208q0 1.125-.834 1.959-.833.833-1.958.833Zm-5.542 5.542q-1.125 0-1.958-.834-.834-.833-.834-1.958V10.25q0-.583.396-.979t.979-.396q.625 0 1.021.396.396.396.396 1.021v23.583H29.75q.583 0 .979.396t.396 1.021q0 .583-.396.979t-1.021.396Z"/></svg>

<svg xmlns="http://www.w3.org/2000/svg" height="40" width="40"><path d="M11.667 31.125Q10.542 31.125 9.708 30.292Q8.875 29.458 8.875 28.333V6.125Q8.875 5 9.708 4.167Q10.542 3.333 11.667 3.333H33.875Q35 3.333 35.833 4.167Q36.667 5 36.667 6.125V28.333Q36.667 29.458 35.833 30.292Q35 31.125 33.875 31.125ZM6.125 36.667Q5 36.667 4.167 35.833Q3.333 35 3.333 33.875V10.25Q3.333 9.667 3.729 9.271Q4.125 8.875 4.708 8.875Q5.333 8.875 5.729 9.271Q6.125 9.667 6.125 10.292V33.875Q6.125 33.875 6.125 33.875Q6.125 33.875 6.125 33.875H29.75Q30.333 33.875 30.729 34.271Q31.125 34.667 31.125 35.292Q31.125 35.875 30.729 36.271Q30.333 36.667 29.708 36.667Z"/></svg>
